X: 114
T: Wugeng yuan
L: 1/8
M: 2/4
K: G
B> c B E [I:setbarnb 1]| 
B> c B E | 
B c B B/ A/ | 
B> A B/ A/ G- | 
G G A B | 
B AG2 | 
A B E D | 
B,4 | 
E GB2 | 
zB2d | 
B AG2 | 
A> B E D | 
E E/ G/B,2 | 
B B/ A/B2 | 
E> FE2 | 
B B/ B/B2 | 
E G/ F/E2 | 
B/ d/ B/ A/ B B | 
F A,E2 | 
B> A B A | 
B EG2- | 
G2z2 | 
G> A B B/ d/ | 
B A G A | 
d B A A/ B/ | 
F ED2- | 
D2z2 |]

@@@ Tune index: 8988
